Papirus/16x16/mimetypes/text-x-c++src.svg

<svg xmlns="http://www.w3.org/2000/svg" width="16" height="16" version="1.1" viewBox="0 0 16 16">
 <path fill="#ccc" d="m2.75 1c-0.4172 0-0.75 0.3328-0.75 0.75v13.5c0 0.417 0.3328 0.75 0.75 0.75h10.5c0.418 0 0.75-0.332 0.75-0.75v-9.25l-4.125-0.875-0.875-4.125z"/>
 <path fill="#f8f8f0" d="m9 1v4.1667c0 0.4584 0.3749 0.8333 0.8333 0.8333h4.1667z"/>
 <path opacity=".5" d="m7 8c-1.6569 0-3 1.3431-3 3s1.3431 3 3 3v-1a2 2 0 0 1 -2 -2 2 2 0 0 1 2 -2v-1zm2 0v1h-1v1h1v2h-1v1h1v1h1v-1h1v-1h-1v-2h1v-1h-1v-1h-1z"/>
</svg>

<svg xmlns="http://www.w3.org/2000/svg" width="16" height="16" version="1.1" viewBox="0 0 16 16">
 <path fill="#e4e4e4" d="m2.75 1c-0.4172 0-0.75 0.3328-0.75 0.75v13.5c0 0.417 0.3328 0.75 0.75 0.75h10.5c0.418 0 0.75-0.332 0.75-0.75v-9.25l-4.125-0.875-0.875-4.125z"/>
 <path fill="#fafafa" d="m9 1v4.1667c0 0.4584 0.3749 0.8333 0.8333 0.8333h4.1667z"/>
 <path d="m 7,8 c -1.6569,0 -3,1.3431 -3,3 0,1.6569 1.3431,3 3,3 V 13 A 2,2 0 0 1 5,11 2,2 0 0 1 7,9 Z" style="fill:#0180cd"/>
 <path d="M 9,8 V 9 H 8 v 1 h 1 v 2 H 8 v 1 h 1 v 1 h 1 v -1 h 1 v -1 h -1 v -2 h 1 V 9 H 10 V 8 Z" style="fill:#01559d"/>
</svg>
